X:1
T: The Harmonica
C:
R:Jig
Q:180
K:G
M:6/8
L:1/16
d2|g4d2 B4g2|e4c2 A4G2|F2G2A2 D2E2F2|G4B2 d4d2|g4d2 B4g2|e4c2 A4G2|F2G2A2 D2E2F2|G6G4d2|
g4d2 B4g2|e4c2 A4G2|F2G2A2 D2E2F2|G4B2 d4d2|g4d2 B4g2|e4c2 A4G2|F2G2A2 D2E2F2|G6G4d2|
c4a2 a4c2|B4g2 g4B2|A2B2c2 d2e2f2|g4a2 b4d2|c4a2 a4c2|B4g2 g4b2|a2g2f2 e2d2^c2|d2F2G2 A2B2c2|
d2B2g2 e2c2g2|d2B2g2 e2c2g2|d2c2B2 B2A2G2|F2G2A2 A2B2c2|d2B2g2 e2c2g2|d2B2g2 e2c2g2|d2c2B2 A2G2F2|G6G4||
